X: 10359
T: Don't Touch That Green Linnet
R: jig
M: 6/8
K: Dmajor
|:D2F FEF|Adc dfa|baf afd|(3efg e fdA|
D2F FEF|Add dfa|baf afe|edB A3:|
|:aba fda|gdg bge|afd cde|dcB A3|
afd dfa|bge g2b|afd cde|fdc d3:|
|:F2A fAF|G2B gdB|c2e a^ga|ba^g a2g|
afd dAF|GBd gdB|^c2e age|edc d3:|

